!!!SOCIAL_FUNCTION:	dance songs
!!!PDT:	1957
!!!OTL: No_81_Comanche_Dance_Song_(b).krn
!!!LING_GROUP: Keresan
!!!LANG: Tone
!!!REG: Southwest
**kern
*staff1
=1-
=
*clefF4
*k[b-]
*M2/4
8A\L
8A\J
4A\
=2
8A\L
8A\J
4A\
=3
8G\L
8G\J
4G\
=4
8A\L
16F\L
16F\JJ
4F\
=5
8F\L
8F\J
4F\
=6
8D\L
8D\J
8D\
8r
=7
8F\L
16F\L
16F\JJ
4F\
=8
8F\L
8F\J
8F\L
8F\J
=9
8F\L
8B-\J
16B-\LL
16B-\J
8F\J
=10
8G\L
16F\L
16F\JJ
4F\
=11
*M5/8
8F\L
16F\L
16F\J
8F\J
8r
8F\
=12
*M2/4
8G\L
8F\J
4F\
=13
8F\L
8F\J
8F\
8r
=14:|!
8G\L
8G\J
16G\
16r
8F\
=15
*M3/4
[2G\
8G\L]
8G\J
=16
*M2/4
4F\
8F\L
8F\J
=17
*M3/4
8F\L
8F\J
8F\L
8F\J
8F\
8r
=18
*M2/4
8.G\L
16G\Jk
16G\
16r
8F\
=19
*M3/4
[2G\
8G\L]
8G\J
=20
*M2/4
4F\
8F\L
8F\J
=21
*M3/4
8F\L
8F\J
8F\L
8F\J
8F\
8r
==
*-
